!!!COM: Victor Masse/
!!!CNT: Francais
!!!TXO: Francais
!!!OTL: Dieu Qui Sourit et qui Donne
!!!LYR: Victor Hugo
!!!ENC: Jacob Pegg
!!!YOR: Romantic French Song 1830-1870 -David Tunley, ed.,
!!!YOR: New York: Garland Publishing, Inc., 1995, Vol. 4
!!!ODT: 1868/
!!NB: Vocal melody and text only encoded.
!!NB: First instance of melodic material only encoded.
**kern	**silbe
*clef G2	*
*k[b-e-a-]	*
*M4/4	*
=4	=4
{4b-	{Dieu
8g	qui
8e-	sou-
4f	-rit
8a-	et
8c	qui
=5	=5
(4d	don-
16e-q	|
16dq	|
8c)	|
8d	|
8e-}	-ne}
8r	.
{8.e-	{Et
16e-	qui
=6	=6
2f	vient
4g	vers
8.cc	qui
16cc	l'at-
=7	=7
[2cc	-tend,
8cc]}	|}
8r	.
{4cc	{Pour-
=8	=8
(4b-	-vu
4d)	|
(16e-q	que
16fq	|
8e-)	|
8d	|
8e-	soy-
8g	-ez
=9	=9
4b-	bon-
4f	|
8g}	-ne,}
8r	.
{4e-	{Se-
=10	=10
(4e-	-ra
2g)	|
8.dd-	con-
16cc	|
=11	=11
[2cc	-tent,
8cc]}	|}
8r	.
{4cc	{Pour-
=12	=12
(4b-	-vu
4d)	|
(16e-q	que
16fq	|
8e-)	|
8d	vous
8e-	soy-
8g	-ez
=13	=13
4b-	bon-
4f	|
8g}	-ne,}
8r	.
{4B-	{Se-
=14	=14
(4c	-ra
2a-;)	|
(16fq	con-
16gq	|
8.f)	|
16e-	|
=15	=15
[2e-	-tent!
8e-]}	|}
4r	.
8r	.
=16	=16
1r	.
=17	=17
2r	.
4r	.
8r	.
{8g	{Le
=18	=18
2f	monde
8g	ou\
8b-	tout
8e-	e/-
8g	-tin-
=19	=19
8f	-cel-
8dd	|
8b-	|
8d	|
[4f	-le,
8f]}	|}
8r	.
=20	=20
{4f	{Mais
4f	ou\
8f	rien
8cc	n'est
(16anq	en-
16b-q	|
8.an)	|
16g	-flam-
=21	=21
[2f	-me/,
8f]}	|}
8r	.
{4f	{Pour-
=22	=22
2g	-vu
8f#	que
8en	vous
8d#	soy-
8en	-ez
=23	=23
4bn	bel-
(16anq	|
16bnq	|
8an)	|
8g#	|
8an}	-le,}
8r	.
{4d	{Se-
=24	=24
(4c#	-ra
2g)	|
8f#	char-
8e#	|
=25	=25
[2f#	-me/.
8f#]}	|}
8r	.
{4f#	{Pour-
=26	=26
2fn	-vu
8g	que
8an	vous
8b-	soy-
8cc	-ez
=27	=27
8dd	bel-
8an	|
(ccq	|
8b-)	|
8g	|
8en}	-le}
8r	.
{4b-	{Se-
=28	=28
(4f	-ra
2cc;)	|
(16b-q	|
16ccq	|
8b-)	char-
8an	|
=29	=29
[2b-	-me/
8b-]}	|}
8r	.
4r	.
=33	=33
2r	.
4r	.
{4b-	{Mon
=34	=34
2e-	coeur,
8d	dans
8f	l'om-
8e-	-bre am-
8c	-mour-
=35	=35
8B-	-eu-
8e-	|
8g	|
8cc	|
8b-}	-se}
8r	.
{8a-	{Ou\
8g	l'en-
=36	=36
4b-	-i-
4f	-vre
4en	deux
4b-	beaux
=37	=37
(2b-	yeux,
8f)}	|}
8r	.
{4a-	{Pour-
=38	=38
2g	-vu
8an	que
8bn	tu
8cc	sois
8dd	heu-
=39	=39
4cc	-reu-
4en	|
8g}	-se,}
8r	.
{4b-	{Se-
=40	=40
(4a-	-ra
2e-)	|
8.g-	joy-
16b-	|
=41	=41
[2a-	-eux.
8a-]}	|}
8r	.
{4a-	{Pour-
=42	=42
2an	-vu
8ee-	que
8dd	tu
8ee-	sois
8a-	heu-
=43	=43
8cc	-reu-
8b-	|
8g	|
8e-	|
8B-}	-se,}
8r	.
{4b-	{Se-
=44	=44
(4g	-ra
b-q	|
2a-;)	|
8.d	joy-
16f	|
=45	=45
[2e-	-eux.
8e-]}	|}
8r	.
4r	.
*-	*-
